src/assets/logo-black.svg

<?xml version="1.0" encoding="UTF-8"?>
<svg viewBox="0 0 504 109" xmlns="http://www.w3.org/2000/svg">
<path d="m8.5333 0.35211-8.5333 0.4 0.8 6.2667c0.4 3.4666 2.2667 25.733 4.1333 49.6 1.8667 23.867 3.7333 44.133 4 44.933 0.8 2.4 19.867 2.4 21.733 0 1.0666-1.333 32.133-95.2 32.667-98.933 0.1334-0.8-4.2666-1.6-10-2-5.6-0.4-10-0.53333-9.7333-0.26667 0.6667 0.66666-15.333 62.133-16.4 63.2-0.5333 0.5333-1.7333 0.4-2.8-0.1333-1.4667-0.9334-2-7.8667-2.5333-31.867-0.8-34.8 0.5333-31.867-13.333-31.2z" fill="#313131"/>
<path d="m68.267 0.61876c-1.0667 0.66667-9.4667 24.133-18.667 52.267l-16.8 51.067-12.267 0.4c-9.0666 0.267-12.267 0.8-11.867 2 0.26666 1.067 4.5333 1.6 13.733 1.6h13.2l17.6-53.333c9.7333-29.333 17.6-53.733 17.333-54.267-0.1333-0.53333-1.2-0.4-2.2666 0.26667z" fill="#EBBA60"/>
<path d="m90.933 0.35209-6 0.4-16.4 50.267c-9.0666 27.6-16.4 50.8-16.267 51.333 0 0.533 4 0.933 9.0666 0.667l8.9334-0.4 2.4-7.7336 2.4-7.6h10.533c11.733 0 12 0.2667 12 10.133v5.8662h9.333c9.334 0 9.334 0 9.334-3.7329 0-2-1.867-24.267-4-49.6-2.134-25.333-4-46.667-4-47.467 0-1.7333-8.134-2.8-17.334-2.1333zm4.6667 52.933v18.667l-7.0667 0.4c-5.2 0.2667-7.2-0.1333-7.7333-1.6-0.6667-1.6 7.7333-32.667 9.7333-35.867 0.4-0.5333 1.6-0.9333 2.8-0.6666 2 0.4 2.2667 2.8 2.2667 19.067z" fill="#313131"/>
<path d="m92.133 37.285c-0.9333 1.3334-9.2 30-9.2 31.733 0 0.5333 0.8 0.9333 1.8667 0.9333 2.2667 0 9.0667-23.733 8.5333-29.733-0.2666-2.2667-0.8-3.7334-1.2-2.9334z" fill="#EBBA60"/>
<path d="m146.67 0.35209c-2.934 0.4-3.734 1.2-4.4 4.6667-1.334 8.2666-11.334 92.267-11.334 95.2v3.066h25.2c14 0 25.6-0.4 25.867-1.066 0.4-0.534 1.067-4.4002 1.6-8.6669l0.933-7.6h-15.466c-11.734 0-15.734-0.4-16.267-1.7333-0.4-1.0667 1.467-19.067 4.133-40.133 2.534-21.067 4.667-39.333 4.667-40.667 0-2-1.2-2.6667-5.6-2.9333-3.2-0.26667-7.333-0.4-9.333-0.13333z" fill="#313131"/>
<path d="m224.13 1.8188c-16.8 6-19.866 12.4-24.533 50.533-3.333 26.8-3.333 28.8-1.333 35.6 2.933 10.267 8.533 14.4 20.666 15.067 10.4 0.666 16.267-0.934 23.734-6.4002 8.4-6 10.666-12.533 14.4-40.8 1.733-13.733 3.2-28.133 3.2-31.867 0-9.0667-4.4-17.6-10.934-20.933-6.533-3.4667-17.6-4-25.2-1.2zm12.667 15.6c4.8 1.8666 4.933 5.0666 1.467 33.2-1.867 15.467-4.267 29.2-5.334 31.467-4.133 7.7334-15.6 6.1334-16.4-2.5333-0.4-3.8667 4.134-45.333 5.867-53.733 1.467-7.2 7.867-10.933 14.4-8.4z" fill="#313131"/>
<path d="m229.87 19.419c-4.267 1.6-5.2 4.8-8.267 29.333-3.467 28.267-3.467 35.867 0.133 35.867 0.534 0 0.8-0.8 0.4-1.7334-0.266-0.9333 0.8-14 2.667-28.8 3.467-28.267 4.533-31.467 10.667-32.4 2.8-0.4 2.8-0.5333 0.133-2-1.6-0.8-3.867-0.9333-5.733-0.2666z" fill="#EBBA60"/>
<path d="m280.53 0.7521c-1.866 0.66666-3.2 8.2667-8.4 50.667-3.466 27.467-5.733 50.4-5.2 50.933 0.534 0.533 4.8 0.933 9.467 0.667l8.533-0.4 1.467-10.667c0.8-5.8667 2-14.667 2.533-19.733 0.934-9.6 3.067-13.067 7.334-12 1.466 0.4 2.666 0.8 2.666 0.9333 0 0 1.2 9.4667 2.667 20.8s2.667 20.8 2.667 21.067c0 0.266 4.4 0.266 9.733 0 9.333-0.4 9.6-0.534 9.2-3.7336-0.267-1.8666-1.733-11.867-3.467-22.4l-3.066-19.067 5.733-6c9.333-9.6 12.667-26.933 7.333-38.533-3.066-6.8-6.133-9.3333-13.333-11.333-6.267-1.6-32.133-2.5333-35.867-1.2zm29.6 19.867c2.934 2.9333 3.334 11.2 0.8 17.333-2.666 6.5333-13.6 10.533-17.066 6.2667-1.734-2 0.666-23.333 2.8-26 1.866-2.4 10.133-0.9334 13.466 2.4z" fill="#313131"/>
<path d="m298.27 20.485c-0.534 1.0667-3.067 17.733-3.334 21.733 0 0.6666 0.8 1.0666 1.867 1.0666 1.733 0 3.467-7.8666 3.467-16.133 0-3.4667 0.4-3.8667 4.4-3.8667 4-0.1333 4.133-0.1333 1.733-2-2.933-2.2666-6.933-2.6666-8.133-0.8z" fill="#EBBA60"/>
<path d="m356.67 0.35209c-3.867 0.26667-7.067 0.93334-7.067 1.7333 0 0.66666-2.667 23.2-6 50s-6 49.2-6 50c0 0.667 4.133 1.2 9.333 1.2 8.534 0 9.334-0.266 9.867-3.066 0.8-3.4669 6.267-44.667 6.267-47.6 0.133-1.0667 1.2-11.6 2.666-23.333 1.467-11.733 2.667-22.8 2.934-24.533 0.4-3.8667-2.534-4.9333-12-4.4z" fill="#313131"/>
<path d="m386 0.35209c-3.467 0.4-4.4 1.0667-4.4 3.3333 0 1.6-0.4 5.2-0.8 7.8667l-0.933 5.0667h12.8c14 0 16.933 0.6666 16.933 3.6 0 1.2-4 8.4-8.8 16.267-10.4 16.933-9.067 14.8-20 32.667-8.267 13.733-10.933 21.467-11.2 32.4 0 1.333 5.867 1.733 25.2 1.733 14 0 25.6-0.4 25.867-1.066 0.4-0.534 1.066-4.4002 1.6-8.6669l0.933-7.6h-14.667c-8.533 0-15.066-0.5333-15.6-1.3333-0.533-0.8 7.467-15.067 17.734-31.733 22.533-36.8 21.066-33.867 22.133-44l0.933-8.2667h-7.733c-4.267-0.13333-14-0.26667-21.733-0.4-7.734-0.13333-16-0.13333-18.267 0.13333z" fill="#313131"/>
<path d="m458.67 0.35209c-8.134 0.26667-11.734 0.93334-11.734 2 0 0.93334-0.666 5.4667-1.333 10.267-1.467 10.133-1.467 10.8-6.667 53.333-2.133 18-4 33.733-4 34.933 0 2.267 2.134 2.4 25.334 2.4 19.2 0 25.6-0.4 26-1.733 0.266-0.8 0.8-4.6666 1.2-8.5332l0.933-6.9334-31.467-0.8 0.4-9.3333c0.8-14.267 1.867-15.867 11.867-16.4 9.067-0.4 9.2-0.6667 10-10.267l0.4-5.3333-17.333-1.3333 0.4-10c0.666-15.467 1.333-16 18.933-16 8 0 14.8-0.4 15.067-1.0667 0.4-0.5333 0.8-4.1333 1.066-8l0.534-7.0667-14-0.26667c-7.734-0.13333-19.2-0.13333-25.6 0.13333z" fill="#313131"/>
<path d="m24.4 26.885c0.1333 14.533 0.5333 28.133 1.0667 30.4l0.9333 4 0.9333-5.3333c1.8667-10.667 0.2667-55.333-2-55.333-0.5333 0-0.9333 11.867-0.9333 26.267z" fill="#EBBA60"/>
<path d="m110.93 1.5521c0 0.66667 1.867 22.4 4 48.4 2.134 26 4 48.933 4 50.933 0 3.6 0 3.6-10.933 4-14.267 0.534-14.4 2.934-0.4 3.467 15.733 0.533 16.533 0.267 15.2-6.667-0.667-3.1996-2.667-24.933-4.533-48.4-3.867-47.733-4.4-52.667-6.134-52.667-0.666 0-1.2 0.4-1.2 0.93333z" fill="#EBBA60"/>
<path d="m164.27 1.9521c0 0.8-2.134 18.533-4.667 39.467-5.333 43.333-5.2 41.867-2.933 41.867 1.2 0 2.933-10.667 6.133-37.733 2.4-20.667 4.8-39.2 5.067-41.333 0.533-2.6667 0.266-3.6-1.467-3.6-1.2 0-2.133 0.66667-2.133 1.3333z" fill="#EBBA60"/>
<path d="m365.73 49.019c-3.2 26.533-6.133 49.867-6.4 51.866-0.666 3.6-0.933 3.6-11.6 4-14.933 0.534-13.866 2.934 1.6 3.467 8.267 0.267 12.267-0.133 12.267-1.067 0-0.8 0.533-1.2 1.2-0.8 0.667 0.534 0.933-0.266 0.667-1.466-0.4-1.334 2.133-24.534 5.466-51.467 3.334-27.067 6-50 6-51.067s-0.8-1.8667-1.6-1.8667c-1.2 0-3.333 13.733-7.6 48.4z" fill="#EBBA60"/>
<path d="m435.73 4.8854c-0.4 2.4-0.933 6.6667-1.333 9.4667-0.533 4.2667-18.8 36-37.867 65.867-1.733 2.8-1.733 3.0666 0.667 3.0666 2 0 7.2-7.3333 21.067-30.133 18.133-29.6 19.733-33.333 20.933-46.4 0.533-6.5333-2.533-8.2667-3.467-1.8667z" fill="#EBBA60"/>
<path d="m501.07 3.5521c-0.4 1.7333-1.067 5.8667-1.467 9.3333l-0.8 6.4h-14.933c-8.267 0-15.6 0.5334-16.4 1.0667-0.934 0.5333-2 5.3333-2.534 10.533-0.8 8.4-0.666 9.7334 1.2 9.7334 1.6 0 2.134-1.3334 2.134-5.8667 0-3.3333 0.533-6.2667 1.333-6.8 0.667-0.4 0.933-1.6 0.4-2.6667-0.533-1.7333 1.733-2 15.333-2 12.4 0 16.134-0.4 16.667-1.8666 1.733-4.4 2.533-20.8 1.067-20.8-0.8 0-1.734 1.3333-2 2.9333z" fill="#EBBA60"/>
<path d="m260.27 10.619c3.466 6.8 3.333 11.733-0.667 43.6-2.4 18.4-4.267 28.4-6.133 32.4-3.6 7.4666-12.8 16-19.334 17.866-6.8 1.867-17.733 1.867-23.066 0-5.867-2-6.667-0.533-1.334 2.134 6.667 3.466 23.467 3.066 31.2-0.667 7.467-3.6 14.667-11.867 17.2-19.867 1.2-3.3333 3.6-18.267 5.467-33.067 3.733-29.867 3.333-37.333-2.8-44.133l-3.2-3.6 2.667 5.3334z" fill="#EBBA60"/>
<path d="m333.2 14.219c4.267 12.133-0.4 31.067-9.867 40.133l-3.866 3.6 2.933 19.067c1.733 10.4 3.467 20.933 3.867 23.2l0.8 4.4h-11.467c-9.2 0-11.333 0.4-11.333 2s2.266 2 12.666 2c11.734 0 12.667-0.267 12.667-2.667 0-1.333-1.467-11.867-3.333-23.333l-3.334-20.8 5.2-6.1334c6.4-7.2 10-17.067 10-27.067-0.133-8.1334-2.4-16.267-5.066-18.667-1.467-1.0667-1.467-0.26666 0.133 4.2667z" fill="#EBBA60"/>
<path d="m379.87 20.085c-2.267 2.2667 1.466 3.2 12.4 3.2 12.266 0 16.533-0.8 15.2-2.8-0.8-1.3333-26.267-1.7333-27.6-0.4z" fill="#EBBA60"/>
<path d="m482.27 44.885c-0.267 0.9334-0.8 5.2-1.334 9.3334l-0.8 7.7333h-8.4c-5.2 0-8.933 0.6667-9.866 1.6-0.667 0.9333-1.734 5.7333-2.267 10.667-0.8 7.7333-0.533 9.0666 1.2 9.0666 1.467 0 2.133-1.2 2.133-3.7333 0-2 0.4-5.8667 0.8-8.6667l0.934-4.9333h9.066c10.267 0 9.867 0.5333 11.334-13.733 0.533-6.4 0.4-8.9334-0.667-8.9334-0.8 0-1.733 0.8-2.133 1.6z" fill="#EBBA60"/>
<path d="m292.8 63.819c-0.4 0.9333-1.733 10.4-2.933 20.933l-2.4 19.2-10.934 0.4c-8.533 0.267-10.933 0.8-10.933 2.267 0 1.6 2.4 2 11.867 2 6.666 0 12.266-0.534 12.666-1.2 0.4-0.534 1.6-8.8002 2.8-18.267 1.067-9.4667 2.4-19.467 2.8-22.267 0.8-4.8-1.333-7.2-2.933-3.0666z" fill="#EBBA60"/>
<path d="m186.27 92.219c-1.734 13.733 1.466 12.266-28.667 12.666-16.667 0.267-26.667 0.934-26.667 1.734s10.267 1.333 28.267 1.333h28.4l0.8-5.333c1.733-10 1.867-15.734 0.267-16.267-0.934-0.4-1.867 1.8667-2.4 5.8667z" fill="#EBBA60"/>
<path d="m424.93 93.552c-0.533 4.2667-1.066 8.5329-1.333 9.3329-0.4 1.334-7.067 1.734-27.333 1.734-22.934 0-26.667 0.266-26.667 2 0 1.733 3.733 2 28.267 1.733l28.266-0.4 0.934-4.667c1.866-8.6662 2-16.4 0.266-16.933-0.933-0.4-1.866 2.1333-2.4 7.2z" fill="#EBBA60"/>
<path d="m490.4 90.219c-0.4 2.4-1.067 6.6666-1.467 9.3333l-0.8 5.0669-26.533 0.266c-16.4 0.267-26.8 0.934-27.067 1.734-0.266 1.6 55.067 2.533 56.534 1.066 1.733-1.866 3.066-21.733 1.466-21.733-0.8 0-1.733 2-2.133 4.2667z" fill="#EBBA60"/>
<path d="m74.4 97.285-2.2667 7.1996-10.133 0.4c-6.8 0.267-10.4 0.934-10.8 2.134-0.4 1.333 2.2667 1.6 11.867 1.333l12.4-0.4 2.2666-7.333 2.1334-7.3336 7.6-0.4c10.133-0.5333 8.2666-2.9333-2.4-2.9333h-8.2667l-2.4 7.3333z" fill="#EBBA60"/>
</svg>

<svg width="504" height="109" viewBox="0 0 504 109" fill="none" xmlns="http://www.w3.org/2000/svg">
<path d="M8.53333 0.352104L0 0.752106L0.8 7.01878C1.2 10.4854 3.06667 32.7521 4.93333 56.6188C6.8 80.4854 8.66667 100.752 8.93333 101.552C9.73333 103.952 28.8 103.952 30.6667 101.552C31.7333 100.219 62.8 6.3521 63.3333 2.61877C63.4667 1.81877 59.0667 1.01878 53.3333 0.618774C47.7333 0.218773 43.3333 0.0854416 43.6 0.352104C44.2667 1.01878 28.2667 62.4854 27.2 63.5521C26.6667 64.0854 25.4667 63.9521 24.4 63.4188C22.9333 62.4854 22.4 55.5521 21.8667 31.5521C21.0667 -3.24789 22.4 -0.31456 8.53333 0.352104Z" fill="#313131"/>
<path d="M68.2667 0.618767C67.2 1.28543 58.8 24.7521 49.6 52.8854L32.8 103.952L20.5333 104.352C11.4667 104.619 8.26667 105.152 8.66667 106.352C8.93333 107.419 13.2 107.952 22.4 107.952H35.6L53.2 54.6188C62.9333 25.2854 70.8 0.885429 70.5333 0.352097C70.4 -0.181236 69.3333 -0.047905 68.2667 0.618767Z" fill="#028ACA"/>
<path d="M90.9333 0.352089L84.9333 0.75209L68.5333 51.0188C59.4667 78.6188 52.1333 101.819 52.2667 102.352C52.2667 102.885 56.2667 103.285 61.3333 103.019L70.2667 102.619L72.6667 94.8854L75.0667 87.2854H85.6C97.3333 87.2854 97.6 87.5521 97.6 97.4188V103.285H106.933C116.267 103.285 116.267 103.285 116.267 99.5521C116.267 97.5521 114.4 75.2854 112.267 49.9521C110.133 24.6188 108.267 3.28542 108.267 2.48543C108.267 0.75209 100.133 -0.314575 90.9333 0.352089ZM95.6 53.2854V71.9521L88.5333 72.3521C83.3333 72.6188 81.3333 72.2188 80.8 70.7521C80.1333 69.1521 88.5333 38.0854 90.5333 34.8854C90.9333 34.3521 92.1333 33.9521 93.3333 34.2188C95.3333 34.6188 95.6 37.0188 95.6 53.2854Z" fill="#313131"/>
<path d="M92.1333 37.2854C91.2 38.6188 82.9333 67.2854 82.9333 69.0188C82.9333 69.5521 83.7333 69.9521 84.8 69.9521C87.0667 69.9521 93.8667 46.2188 93.3333 40.2188C93.0667 37.9521 92.5333 36.4854 92.1333 37.2854Z" fill="#028ACA"/>
<path d="M146.667 0.352089C143.733 0.75209 142.933 1.55209 142.267 5.01876C140.933 13.2854 130.933 97.2854 130.933 100.219V103.285H156.133C170.133 103.285 181.733 102.885 182 102.219C182.4 101.685 183.067 97.8188 183.6 93.5521L184.533 85.9521H169.067C157.333 85.9521 153.333 85.5521 152.8 84.2188C152.4 83.1521 154.267 65.1521 156.933 44.0854C159.467 23.0188 161.6 4.75209 161.6 3.41876C161.6 1.41876 160.4 0.75209 156 0.485428C152.8 0.218758 148.667 0.0854263 146.667 0.352089Z" fill="#313131"/>
<path d="M224.133 1.81877C207.333 7.81877 204.267 14.2188 199.6 52.3521C196.267 79.1521 196.267 81.1521 198.267 87.9521C201.2 98.2188 206.8 102.352 218.933 103.019C229.333 103.685 235.2 102.085 242.667 96.6188C251.067 90.6188 253.333 84.0854 257.067 55.8188C258.8 42.0854 260.267 27.6854 260.267 23.9521C260.267 14.8854 255.867 6.3521 249.333 3.01877C242.8 -0.447899 231.733 -0.981232 224.133 1.81877ZM236.8 17.4188C241.6 19.2854 241.733 22.4854 238.267 50.6188C236.4 66.0854 234 79.8188 232.933 82.0854C228.8 89.8188 217.333 88.2188 216.533 79.5521C216.133 75.6854 220.667 34.2188 222.4 25.8188C223.867 18.6188 230.267 14.8854 236.8 17.4188Z" fill="#313131"/>
<path d="M229.867 19.4188C225.6 21.0188 224.667 24.2188 221.6 48.7521C218.133 77.0188 218.133 84.6188 221.733 84.6188C222.267 84.6188 222.533 83.8188 222.133 82.8854C221.867 81.9521 222.933 68.8854 224.8 54.0854C228.267 25.8188 229.333 22.6188 235.467 21.6854C238.267 21.2854 238.267 21.1521 235.6 19.6854C234 18.8854 231.733 18.7521 229.867 19.4188Z" fill="#028ACA"/>
<path d="M280.533 0.752106C278.667 1.41877 277.333 9.01877 272.133 51.4188C268.667 78.8854 266.4 101.819 266.933 102.352C267.467 102.885 271.733 103.285 276.4 103.019L284.933 102.619L286.4 91.9521C287.2 86.0854 288.4 77.2854 288.933 72.2188C289.867 62.6188 292 59.1521 296.267 60.2188C297.733 60.6188 298.933 61.0188 298.933 61.1521C298.933 61.1521 300.133 70.6188 301.6 81.9521C303.067 93.2854 304.267 102.752 304.267 103.019C304.267 103.285 308.667 103.285 314 103.019C323.333 102.619 323.6 102.485 323.2 99.2854C322.933 97.4188 321.467 87.4188 319.733 76.8854L316.667 57.8188L322.4 51.8188C331.733 42.2188 335.067 24.8854 329.733 13.2854C326.667 6.48544 323.6 3.9521 316.4 1.9521C310.133 0.352104 284.267 -0.58123 280.533 0.752106ZM310.133 20.6188C313.067 23.5521 313.467 31.8188 310.933 37.9521C308.267 44.4854 297.333 48.4854 293.867 44.2188C292.133 42.2188 294.533 20.8854 296.667 18.2188C298.533 15.8188 306.8 17.2854 310.133 20.6188Z" fill="#313131"/>
<path d="M298.267 20.4854C297.733 21.5521 295.2 38.2188 294.933 42.2188C294.933 42.8854 295.733 43.2854 296.8 43.2854C298.533 43.2854 300.267 35.4188 300.267 27.1521C300.267 23.6854 300.667 23.2854 304.667 23.2854C308.667 23.1521 308.8 23.1521 306.4 21.2854C303.467 19.0188 299.467 18.6188 298.267 20.4854Z" fill="#028ACA"/>
<path d="M356.667 0.352089C352.8 0.618759 349.6 1.28542 349.6 2.08543C349.6 2.75209 346.933 25.2854 343.6 52.0854C340.267 78.8854 337.6 101.285 337.6 102.085C337.6 102.752 341.733 103.285 346.933 103.285C355.467 103.285 356.267 103.019 356.8 100.219C357.6 96.7521 363.067 55.5521 363.067 52.6188C363.2 51.5521 364.267 41.0188 365.733 29.2854C367.2 17.5521 368.4 6.48543 368.667 4.75209C369.067 0.885422 366.133 -0.181244 356.667 0.352089Z" fill="#313131"/>
<path d="M386 0.352089C382.533 0.75209 381.6 1.41876 381.6 3.68542C381.6 5.28542 381.2 8.88543 380.8 11.5521L379.867 16.6188H392.667C406.667 16.6188 409.6 17.2854 409.6 20.2188C409.6 21.4188 405.6 28.6188 400.8 36.4854C390.4 53.4188 391.733 51.2854 380.8 69.1521C372.533 82.8854 369.867 90.6188 369.6 101.552C369.6 102.885 375.467 103.285 394.8 103.285C408.8 103.285 420.4 102.885 420.667 102.219C421.067 101.685 421.733 97.8188 422.267 93.5521L423.2 85.9521H408.533C400 85.9521 393.467 85.4188 392.933 84.6188C392.4 83.8188 400.4 69.5521 410.667 52.8854C433.2 16.0854 431.733 19.0188 432.8 8.88543L433.733 0.618759H426C421.733 0.485428 412 0.352089 404.267 0.218758C396.533 0.0854263 388.267 0.0854263 386 0.352089Z" fill="#313131"/>
<path d="M458.667 0.352089C450.533 0.618759 446.933 1.28542 446.933 2.35209C446.933 3.28542 446.267 7.81876 445.6 12.6188C444.133 22.7521 444.133 23.4188 438.933 65.9521C436.8 83.9521 434.933 99.6854 434.933 100.885C434.933 103.152 437.067 103.285 460.267 103.285C479.467 103.285 485.867 102.885 486.267 101.552C486.533 100.752 487.067 96.8854 487.467 93.0188L488.4 86.0854L472.667 85.6854L456.933 85.2854L457.333 75.9521C458.133 61.6854 459.2 60.0854 469.2 59.5521C478.267 59.1521 478.4 58.8854 479.2 49.2854L479.6 43.9521L470.933 43.2854L462.267 42.6188L462.667 32.6188C463.333 17.1521 464 16.6188 481.6 16.6188C489.6 16.6188 496.4 16.2188 496.667 15.5521C497.067 15.0188 497.467 11.4188 497.733 7.55209L498.267 0.485428L484.267 0.218758C476.533 0.0854263 465.067 0.0854263 458.667 0.352089Z" fill="#313131"/>
<path d="M24.4 26.8854C24.5333 41.4188 24.9333 55.0188 25.4667 57.2854L26.4 61.2854L27.3333 55.9521C29.2 45.2854 27.6 0.618763 25.3333 0.618763C24.8 0.618763 24.4 12.4854 24.4 26.8854Z" fill="#028ACA"/>
<path d="M110.933 1.5521C110.933 2.21877 112.8 23.9521 114.933 49.9521C117.067 75.9521 118.933 98.8854 118.933 100.885C118.933 104.485 118.933 104.485 108 104.885C93.7333 105.419 93.6 107.819 107.6 108.352C123.333 108.885 124.133 108.619 122.8 101.685C122.133 98.4854 120.133 76.7521 118.267 53.2854C114.4 5.55209 113.867 0.618767 112.133 0.618767C111.467 0.618767 110.933 1.01877 110.933 1.5521Z" fill="#028ACA"/>
<path d="M164.267 1.9521C164.267 2.7521 162.133 20.4854 159.6 41.4188C154.267 84.7521 154.4 83.2854 156.667 83.2854C157.867 83.2854 159.6 72.6188 162.8 45.5521C165.2 24.8854 167.6 6.35209 167.867 4.21876C168.4 1.55209 168.133 0.618759 166.4 0.618759C165.2 0.618759 164.267 1.28543 164.267 1.9521Z" fill="#028ACA"/>
<path d="M365.733 49.0188C362.533 75.5521 359.6 98.8854 359.333 100.885C358.667 104.485 358.4 104.485 347.733 104.885C332.8 105.419 333.867 107.819 349.333 108.352C357.6 108.619 361.6 108.219 361.6 107.285C361.6 106.485 362.133 106.085 362.8 106.485C363.467 107.019 363.733 106.219 363.467 105.019C363.067 103.685 365.6 80.4854 368.933 53.5521C372.267 26.4854 374.933 3.55209 374.933 2.48542C374.933 1.41875 374.133 0.618752 373.333 0.618752C372.133 0.618752 370 14.3521 365.733 49.0188Z" fill="#028ACA"/>
<path d="M435.733 4.88543C435.333 7.28542 434.8 11.5521 434.4 14.3521C433.867 18.6188 415.6 50.3521 396.533 80.2188C394.8 83.0188 394.8 83.2854 397.2 83.2854C399.2 83.2854 404.4 75.9521 418.267 53.1521C436.4 23.5521 438 19.8188 439.2 6.75209C439.733 0.218758 436.667 -1.51457 435.733 4.88543Z" fill="#028ACA"/>
<path d="M501.067 3.5521C500.667 5.28544 500 9.41877 499.6 12.8854L498.8 19.2854H483.867C475.6 19.2854 468.267 19.8188 467.467 20.3521C466.533 20.8854 465.467 25.6854 464.933 30.8854C464.133 39.2854 464.267 40.6188 466.133 40.6188C467.733 40.6188 468.267 39.2854 468.267 34.7521C468.267 31.4188 468.8 28.4854 469.6 27.9521C470.267 27.5521 470.533 26.3521 470 25.2854C469.467 23.5521 471.733 23.2854 485.333 23.2854C497.733 23.2854 501.467 22.8854 502 21.4188C503.733 17.0188 504.533 0.618771 503.067 0.618771C502.267 0.618771 501.333 1.95211 501.067 3.5521Z" fill="#028ACA"/>
<path d="M260.267 10.6188C263.733 17.4188 263.6 22.3521 259.6 54.2188C257.2 72.6188 255.333 82.6188 253.467 86.6188C249.867 94.0854 240.667 102.619 234.133 104.485C227.333 106.352 216.4 106.352 211.067 104.485C205.2 102.485 204.4 103.952 209.733 106.619C216.4 110.085 233.2 109.685 240.933 105.952C248.4 102.352 255.6 94.0854 258.133 86.0854C259.333 82.7521 261.733 67.8188 263.6 53.0188C267.333 23.1521 266.933 15.6854 260.8 8.88543L257.6 5.28543L260.267 10.6188Z" fill="#028ACA"/>
<path d="M333.2 14.2188C337.467 26.3521 332.8 45.2854 323.333 54.3521L319.467 57.9521L322.4 77.0188C324.133 87.4188 325.867 97.9521 326.267 100.219L327.067 104.619H315.6C306.4 104.619 304.267 105.019 304.267 106.619C304.267 108.219 306.533 108.619 316.933 108.619C328.667 108.619 329.6 108.352 329.6 105.952C329.6 104.619 328.133 94.0854 326.267 82.6188L322.933 61.8188L328.133 55.6854C334.533 48.4854 338.133 38.6188 338.133 28.6188C338 20.4854 335.733 12.3521 333.067 9.95211C331.6 8.88544 331.6 9.68545 333.2 14.2188Z" fill="#028ACA"/>
<path d="M379.867 20.0854C377.6 22.3521 381.333 23.2854 392.267 23.2854C404.533 23.2854 408.8 22.4854 407.467 20.4854C406.667 19.1521 381.2 18.7521 379.867 20.0854Z" fill="#028ACA"/>
<path d="M482.267 44.8854C482 45.8188 481.467 50.0854 480.933 54.2188L480.133 61.9521H471.733C466.533 61.9521 462.8 62.6188 461.867 63.5521C461.2 64.4854 460.133 69.2854 459.6 74.2188C458.8 81.9521 459.067 83.2854 460.8 83.2854C462.267 83.2854 462.933 82.0854 462.933 79.5521C462.933 77.5521 463.333 73.6854 463.733 70.8854L464.667 65.9521H473.733C484 65.9521 483.6 66.4854 485.067 52.2188C485.6 45.8188 485.467 43.2854 484.4 43.2854C483.6 43.2854 482.667 44.0854 482.267 44.8854Z" fill="#028ACA"/>
<path d="M292.8 63.8188C292.4 64.7521 291.067 74.2188 289.867 84.7521L287.467 103.952L276.533 104.352C268 104.619 265.6 105.152 265.6 106.619C265.6 108.219 268 108.619 277.467 108.619C284.133 108.619 289.733 108.085 290.133 107.419C290.533 106.885 291.733 98.6188 292.933 89.1521C294 79.6854 295.333 69.6854 295.733 66.8854C296.533 62.0854 294.4 59.6854 292.8 63.8188Z" fill="#028ACA"/>
<path d="M186.267 92.2188C184.533 105.952 187.733 104.485 157.6 104.885C140.933 105.152 130.933 105.819 130.933 106.619C130.933 107.419 141.2 107.952 159.2 107.952H187.6L188.4 102.619C190.133 92.6188 190.267 86.8854 188.667 86.3521C187.733 85.9521 186.8 88.2188 186.267 92.2188Z" fill="#028ACA"/>
<path d="M424.933 93.5521C424.4 97.8188 423.867 102.085 423.6 102.885C423.2 104.219 416.533 104.619 396.267 104.619C373.333 104.619 369.6 104.885 369.6 106.619C369.6 108.352 373.333 108.619 397.867 108.352L426.133 107.952L427.067 103.285C428.933 94.6188 429.067 86.8854 427.333 86.3521C426.4 85.9521 425.467 88.4854 424.933 93.5521Z" fill="#028ACA"/>
<path d="M490.4 90.2188C490 92.6188 489.333 96.8854 488.933 99.5521L488.133 104.619L461.6 104.885C445.2 105.152 434.8 105.819 434.533 106.619C434.267 108.219 489.6 109.152 491.067 107.685C492.8 105.819 494.133 85.9521 492.533 85.9521C491.733 85.9521 490.8 87.9521 490.4 90.2188Z" fill="#028ACA"/>
<path d="M74.4 97.2854L72.1333 104.485L62 104.885C55.2 105.152 51.6 105.819 51.2 107.019C50.8 108.352 53.4667 108.619 63.0667 108.352L75.4667 107.952L77.7333 100.619L79.8667 93.2854L87.4667 92.8854C97.6 92.3521 95.7333 89.9521 85.0667 89.9521H76.8L74.4 97.2854Z" fill="#028ACA"/>
</svg>
